thumbnail-light.svg

<svg class="typst-doc" viewBox="0 0 595.2755905511812 341.9496686291533" width="595.2755905511812pt" height="341.9496686291533pt" xmlns="http://www.w3.org/2000/svg" xmlns:xlink="http://www.w3.org/1999/xlink" xmlns:h5="http://www.w3.org/1999/xhtml">
    <g>
        <g class="typst-group" transform="matrix(1 0 0 1 55.246923764163455 14.173228346456693)">
            <g>
                <path class="typst-shape" fill="none" stroke="#000000" stroke-width="1" stroke-linecap="butt" stroke-linejoin="miter" stroke-miterlimit="4" transform="matrix(1 0 0 1 371.3876095440749 56.452316000767794)" d="M 0 0m 108.07829 32.737606 c -13.220444 -28.35134 -46.989346 -40.642216 -75.34068 -27.421768 c -28.35134 13.220448 -40.642216 46.98935 -27.421768 75.34068 c 13.220448 28.351341 46.98935 40.64222 75.34068 27.421768 c 28.351341 -13.220444 40.64222 -46.989346 27.421768 -75.34068 Z "/>
                <path class="typst-shape" fill="none" stroke="#000000" stroke-width="1" stroke-linecap="butt" stroke-linejoin="miter" stroke-miterlimit="4" transform="matrix(1 0 0 1 228.58333577384258 139.6701105769922)" d="M 0 0m 86.46264 26.190084 c -10.576363 -22.681072 -37.59148 -32.51377 -60.272552 -21.937414 c -22.681072 10.576358 -32.51377 37.59148 -21.937414 60.272552 c 10.576358 22.681068 37.59148 32.51377 60.272552 21.937416 c 22.681068 -10.576363 32.51377 -37.59148 21.937416 -60.272552 Z "/>
                <path class="typst-shape" fill="none" stroke="#000000" stroke-width="1" stroke-linecap="butt" stroke-linejoin="miter" stroke-miterlimit="4" transform="matrix(1 0 0 1 63.100235307854405 200.20907845746072)" d="M 0 0m 108.07829 32.737606 c -13.220444 -28.35134 -46.989346 -40.642216 -75.34068 -27.421768 c -28.35134 13.220448 -40.642216 46.98935 -27.421768 75.34068 c 13.220448 28.351341 46.98935 40.64222 75.34068 27.421768 c 28.351341 -13.220444 40.64222 -46.989346 27.421768 -75.34068 Z "/>
                <path class="typst-shape" fill="none" stroke="#000000" stroke-width="2" stroke-linecap="butt" stroke-linejoin="miter" stroke-miterlimit="4" d="M 0 0l 435.43494 56.934967 c 24.9971 3.2684746 44.833008 22.650589 48.679016 47.565353 c 3.8460083 24.914764 -9.221924 49.376144 -32.069824 60.03029 l -308.28735 143.75677 c -18.765587 8.750519 -40.80912 6.5747375 -57.501816 -5.6756897 c -16.692703 -12.250458 -25.379215 -32.6268 -22.659271 -53.15291 c 2.7199402 -20.526108 16.413673 -37.93683 35.720886 -45.41687 l 158.23984 -61.305527 c 16.859772 -6.531845 35.988586 -2.4256897 48.682373 10.450058 c 12.693787 12.875763 16.527252 32.06108 9.7561035 48.826187 c -6.7711487 16.76509 -22.853241 27.90686 -40.928497 28.3555 l -103.88785 2.5785522 "/>
            </g>
        </g>
    </g>
</svg>

<svg class="typst-doc" viewBox="0 0 595.2755905511812 341.9496686291533" width="595.2755905511812pt" height="341.9496686291533pt" xmlns="http://www.w3.org/2000/svg" xmlns:xlink="http://www.w3.org/1999/xlink" xmlns:h5="http://www.w3.org/1999/xhtml">
    <g>
        <g transform="translate(55.246923764163455 14.173228346456693)">
            <g class="typst-group">
                <g>
                    <g transform="translate(371.3876095440749 56.452316000767794)">
                        <path class="typst-shape" fill="none" stroke="#000000" stroke-width="1" stroke-linecap="butt" stroke-linejoin="miter" stroke-miterlimit="4" d="M 108.07829 32.737606 C 94.85785 4.386266 61.088947 -7.904609 32.737606 5.315838 C 4.386266 18.536285 -7.904609 52.305187 5.315838 80.656525 C 18.536285 109.007866 52.305187 121.298744 80.656525 108.07829 C 109.007866 94.85785 121.298744 61.088947 108.07829 32.737606 Z "/>
                    </g>
                    <g transform="translate(228.58333577384258 139.6701105769922)">
                        <path class="typst-shape" fill="none" stroke="#000000" stroke-width="1" stroke-linecap="butt" stroke-linejoin="miter" stroke-miterlimit="4" d="M 86.46264 26.190084 C 75.88628 3.509013 48.87116 -6.3236876 26.190084 4.2526703 C 3.509013 14.829028 -6.3236876 41.84415 4.2526703 64.52522 C 14.829028 87.20629 41.84415 97.038994 64.52522 86.46264 C 87.20629 75.88628 97.038994 48.87116 86.46264 26.190084 Z "/>
                    </g>
                    <g transform="translate(63.100235307854405 200.20907845746072)">
                        <path class="typst-shape" fill="none" stroke="#000000" stroke-width="1" stroke-linecap="butt" stroke-linejoin="miter" stroke-miterlimit="4" d="M 108.07829 32.737606 C 94.85785 4.386266 61.088947 -7.904609 32.737606 5.315838 C 4.386266 18.536285 -7.904609 52.305187 5.315838 80.656525 C 18.536285 109.007866 52.305187 121.298744 80.656525 108.07829 C 109.007866 94.85785 121.298744 61.088947 108.07829 32.737606 Z "/>
                    </g>
                    <g transform="translate(0 0)">
                        <path class="typst-shape" fill="none" stroke="#000000" stroke-width="2" stroke-linecap="butt" stroke-linejoin="miter" stroke-miterlimit="4" d="M 0 0 L 435.43494 56.934967 L 435.43494 56.934967 C 460.43204 60.20344 480.26794 79.585556 484.11395 104.50032 C 487.95996 129.41508 474.89203 153.87646 452.04413 164.53061 L 452.04413 164.53061 L 143.75676 308.28738 L 143.75676 308.28738 C 124.99117 317.0379 102.94764 314.86212 86.254944 302.6117 C 69.56224 290.36124 60.87573 269.9849 63.595673 249.45879 C 66.31561 228.93268 80.009346 211.52196 99.31656 204.04192 L 99.31656 204.04192 L 257.5564 142.73639 L 257.5564 142.73639 C 274.41617 136.20454 293.54498 140.3107 306.23877 153.18645 C 318.93256 166.06221 322.76602 185.24753 315.99487 202.01263 C 309.22372 218.77773 293.14163 229.9195 275.06638 230.36813 L 275.06638 230.36813 L 171.17853 232.94669 "/>
                    </g>
                </g>
            </g>
        </g>
    </g>
</svg>
